X:1
T:Wallace (Baker), LM
T:Wallace (Baker), LM
T:Benjamin Franklin Baker (1811-1889)
T:Public Domain Courtesy of the Cyber Hymnal™
C:Benjamin Franklin Baker (1811-1889)
Z:Public Domain
Z:Courtesy of the Cyber Hymnal™
%%score ( 1 2 ) ( 3 4 )
L:1/8
Q:1/4=130
M:4/4
K:C
V:1 treble 
V:2 treble 
V:3 bass 
V:4 bass 
V:1
 [CE]4 [CE]2 [CE]2 | [EG]4 [CE]4 | ([B,D]2 [CE]2) ([DF]2 [EG]2) | [CE]8 | [EG]4 [DG]2 [C^F]2 | %5
 G4 c4 | ([GB]2 [^FA]2) (G2 [DF]2) | [DG]8 | [CE]4 [CE]2 [CE]2 | [EG]4 [CE]4 | %10
 ([B,D]2 [CE]2) ([DF]2 [EG]2) | [CE]8 | [Ec]4 [FB]2 [Gc]2 | ([GB]2 [FA]2) ([EG]2 [DF]2) | %14
 [CE]4 [B,D]4 | [CE]8 |] %16
V:2
 x8 | x8 | x8 | x8 | x8 | (B,2 E2) (G2 A2) | x4 G2 x2 | x8 | x8 | x8 | x8 | x8 | x8 | x8 | x8 | %15
 x8 |] %16
V:3
 [C,G,]4 [C,G,]2 [C,G,]2 | [C,C]4 [C,G,]4 | [G,,G,]4 [G,,G,]4 | [C,G,]8 | [C,C]4 [D,B,]2 [D,A,]2 | %5
 (G,2 B,2) [C,E]4 | (D2 C2) (B,2 A,2) | [G,,B,]8 | [C,G,]4 [C,G,]2 [C,G,]2 | [C,C]4 [C,G,]4 | %10
 [G,,G,]4 [G,,G,]4 | [C,G,]8 | [C,G,]4 [D,G,]2 [E,C]2 | [F,C]4 (C2 A,2) | G,4 [G,,G,]4 | [C,G,]8 |] %16
V:4
 x8 | x8 | x8 | x8 | x8 | E,4 x4 | D,4 D,4 | x8 | x8 | x8 | x8 | x8 | x8 | x4 F,4 | G,4 x4 | x8 |] %16

